assets/img/icons/duotone-icons/Code/Lock-overturning.svg

<?xml version="1.0" encoding="UTF-8"?>
<svg width="24px" height="24px" viewBox="0 0 24 24" version="1.1" xmlns="http://www.w3.org/2000/svg" xmlns:xlink="http://www.w3.org/1999/xlink">
    <!-- Generator: Sketch 52.2 (67145) - http://www.bohemiancoding.com/sketch -->
    <title>Stockholm-icons / Code / Lock-overturning</title>
    <desc>Created with Sketch.</desc>
    <g id="Stockholm-icons-/-Code-/-Lock-overturning" stroke="none" stroke-width="1" fill="none" fill-rule="evenodd">
        <rect id="bound" x="0" y="0" width="24" height="24"></rect>
        <path d="M7.38979581,2.8349582 C8.65216735,2.29743306 10.0413491,2 11.5,2 C17.2989899,2 22,6.70101013 22,12.5 C22,18.2989899 17.2989899,23 11.5,23 C5.70101013,23 1,18.2989899 1,12.5 C1,11.5151324 1.13559454,10.5619345 1.38913364,9.65805651 L3.31481075,10.1982117 C3.10672013,10.940064 3,11.7119264 3,12.5 C3,17.1944204 6.80557963,21 11.5,21 C16.1944204,21 20,17.1944204 20,12.5 C20,7.80557963 16.1944204,4 11.5,4 C10.54876,4 9.62236069,4.15592757 8.74872191,4.45446326 L9.93948308,5.87355717 C10.0088058,5.95617272 10.0495583,6.05898805 10.05566,6.16666224 C10.0712834,6.4423623 9.86044965,6.67852665 9.5847496,6.69415008 L4.71777931,6.96995273 C4.66931162,6.97269931 4.62070229,6.96837279 4.57348157,6.95710938 C4.30487471,6.89303938 4.13906482,6.62335149 4.20313482,6.35474463 L5.33163823,1.62361064 C5.35654118,1.51920756 5.41437908,1.4255891 5.49660017,1.35659741 C5.7081375,1.17909652 6.0235153,1.2066885 6.2010162,1.41822583 L7.38979581,2.8349582 Z" id="Combined-Shape" fill="#335EEA" opacity="0.3"></path>
        <path d="M14.5,11 C15.0522847,11 15.5,11.4477153 15.5,12 L15.5,15 C15.5,15.5522847 15.0522847,16 14.5,16 L9.5,16 C8.94771525,16 8.5,15.5522847 8.5,15 L8.5,12 C8.5,11.4477153 8.94771525,11 9.5,11 L9.5,10.5 C9.5,9.11928813 10.6192881,8 12,8 C13.3807119,8 14.5,9.11928813 14.5,10.5 L14.5,11 Z M12,9 C11.1715729,9 10.5,9.67157288 10.5,10.5 L10.5,11 L13.5,11 L13.5,10.5 C13.5,9.67157288 12.8284271,9 12,9 Z" id="Combined-Shape" fill="#335EEA"></path>
    </g>
</svg>

<svg width="24" height="24" viewBox="0 0 24 24" xmlns="http://www.w3.org/2000/svg"><g fill="none" fill-rule="evenodd"><path d="M0 0h24v24H0z"/><path d="M7.39 2.835A10.466 10.466 0 0111.5 2C17.299 2 22 6.701 22 12.5S17.299 23 11.5 23 1 18.299 1 12.5c0-.985.136-1.938.39-2.842l1.925.54A8.509 8.509 0 003 12.5 8.5 8.5 0 1011.5 4c-.951 0-1.878.156-2.751.454l1.19 1.42a.5.5 0 01-.354.82l-4.867.276a.5.5 0 01-.515-.615l1.129-4.731a.5.5 0 01.869-.206L7.39 2.835z" fill="#335EEA" opacity=".3"/><path d="M14.5 11a1 1 0 011 1v3a1 1 0 01-1 1h-5a1 1 0 01-1-1v-3a1 1 0 011-1v-.5a2.5 2.5 0 115 0v.5zM12 9a1.5 1.5 0 00-1.5 1.5v.5h3v-.5A1.5 1.5 0 0012 9z" fill="#335EEA"/></g></svg>
